X:15
T:Marion Ailon
M:6/8
L:1/8
K:GMix
D>ED A2D|c>dc AFA|GAG TB2c| dgd        BGB :|
dgd  BGB|cfc  AFA|dgd  BgB| dgd        BgB  |
cac  BgB|Afc  AFA|GAG TB2c|(g/^f/e/f/g d)BG|]
% N.B. ^The last Strain is not repeated.^

% @@@@@@@@@@@@@@@@@@@@@@@@@@@@@@@@@@

%% 16. ===============================================================================

% +&A&rthur's &S&eat.+
%
% *RIGHT hands across with the first pair, and cast off; left hands across with the
% 2d pair, and sett a little.  *Lead up one pair, & cast off; lead down one pair and
% cast up.  *SETT cross partners.  *Lead out at both sides.

% @@@@@@@@@@@@@@@@@@@@@@@@@@@@@@@@@@

